brandFactory_export/2.Regular/Error_2Regular.svg

<?xml version="1.0" encoding="UTF-8"?>
<svg width="24px" height="24px" viewBox="0 0 24 24" version="1.1" xmlns="http://www.w3.org/2000/svg" xmlns:xlink="http://www.w3.org/1999/xlink">
    <title>2.Regular/Error_2Regular</title>
    <g id="Symbols" stroke="none" stroke-width="1" fill="none" fill-rule="evenodd">
        <g id="2.Regular/Error_2Regular" fill="#5CB615" fill-rule="nonzero">
            <path d="M22.1680672,21.9193277 L22.1680672,8.25210084 L19.0352941,8.24201681 C17.8789916,8.23193277 16.9378151,7.87563025 16.2386555,7.1697479 C15.0655462,5.96302521 15.0823529,4.20504202 15.0823529,4.12773109 L15.0521008,1.48235294 L7.34453782,1.48235294 C7.23697479,1.48235294 7.14957983,1.51932773 7.07226891,1.59663866 C7.00504202,1.66386555 6.95462185,1.76134454 6.95462185,1.86554622 L6.96470588,4.94789916 L7.24705882,4.39663866 C7.51932773,3.81848739 8.22857143,3.57647059 8.81008403,3.86554622 C9.05210084,3.97983193 9.23697479,4.16470588 9.35462185,4.39663866 L16.3630252,18.410084 C16.6521008,18.9613445 16.4403361,19.6672269 15.8655462,19.9663866 C15.7008403,20.0638655 15.5058824,20.1109244 15.3109244,20.1109244 L15.2806723,20.1109244 L6.97478992,20.0840336 L6.97478992,21.7647059 C6.96470588,21.8991597 6.97478992,22.0336134 7.04201681,22.1109244 C7.09915966,22.1714286 7.20672269,22.2084034 7.34453782,22.2084034 L21.892437,22.1882353 C22.0504202,22.1882353 22.1680672,22.0638655 22.1680672,21.9193277 L22.1680672,21.9193277 Z M1.6302521,18.6151261 L6.21176471,18.6252101 L14.8605042,18.6621849 L8.29915966,5.53613445 L1.6302521,18.6151261 L1.6302521,18.6151261 Z M21.5092437,6.80672269 L16.5109244,1.98655462 L16.5411765,4.14117647 C16.5411765,4.16806723 16.5411765,5.40504202 17.287395,6.16806723 C17.7042017,6.58487395 18.2789916,6.78655462 19.0453782,6.79663866 L21.5092437,6.80672269 L21.5092437,6.80672269 Z M23.2638655,6.47731092 C23.4957983,6.71932773 23.6235294,7.01848739 23.6235294,7.33445378 L23.6235294,21.9193277 C23.6235294,22.8638655 22.8470588,23.6369748 21.9058824,23.6369748 L7.34789916,23.6571429 C6.80336134,23.6571429 6.31932773,23.4554622 5.98991597,23.1058824 C5.65042017,22.7495798 5.49579832,22.2756303 5.52605042,21.7243697 L5.52605042,20.0739496 L1.17647059,20.0537815 L1.15630252,20.0537815 C0.534453782,20.0537815 0.0100840336,19.5428571 0,18.9142857 C0,18.712605 0.0403361345,18.5176471 0.134453782,18.3428571 L5.51260504,7.79495798 L5.50252101,1.86554622 C5.50252101,1.37142857 5.69747899,0.921008403 6.04705882,0.571428571 C6.39663866,0.225210084 6.85378151,0.0302521008 7.34789916,0.0302521008 L15.7714286,0.0302521008 C16.2655462,0.0100840336 16.7798319,0.205042017 17.1798319,0.608403361 L23.2638655,6.47731092 Z M8.32605042,15.3747899 C7.92268908,15.3747899 7.59663866,15.0487395 7.59663866,14.6521008 L7.59663866,9.40168067 C7.59663866,9.00168067 7.92268908,8.6789916 8.32605042,8.6789916 C8.72941176,8.6789916 9.05546218,9.00504202 9.05546218,9.40168067 L9.05546218,14.6521008 C9.05210084,15.0521008 8.72605042,15.3747899 8.32605042,15.3747899 Z M8.33277311,15.7512605 C8.75294118,15.7512605 9.09243697,16.0907563 9.09243697,16.507563 C9.09243697,16.9243697 8.75294118,17.2638655 8.33277311,17.2638655 C7.91260504,17.2638655 7.57310924,16.9277311 7.57310924,16.507563 C7.57310924,16.0907563 7.91260504,15.7512605 8.33277311,15.7512605 L8.33277311,15.7512605 Z" id="Error_2Regular"></path>
        </g>
    </g>
</svg>

<svg width="24" height="24" viewBox="0 0 24 24" xmlns="http://www.w3.org/2000/svg"><path d="M22.168 21.92V8.251l-3.133-.01c-1.156-.01-2.097-.366-2.796-1.072-1.173-1.207-1.157-2.965-1.157-3.042l-.03-2.646H7.345a.366.366 0 00-.273.115.39.39 0 00-.117.269l.01 3.082.282-.551a1.16 1.16 0 011.563-.531c.242.114.427.299.545.53l7.008 14.014c.29.551.077 1.257-.497 1.556-.165.098-.36.145-.555.145h-.03l-8.306-.027v1.68c-.01.135 0 .27.067.347.057.06.165.097.303.097l14.547-.02a.271.271 0 00.276-.269zM1.63 18.614l4.582.01 8.649.037L8.299 5.536 1.63 18.616zM21.51 6.807l-5-4.82.031 2.154c0 .027 0 1.264.746 2.027.417.417.992.619 1.758.629l2.464.01zm1.754-.33c.232.242.36.541.36.857V21.92c0 .945-.777 1.718-1.718 1.718l-14.558.02c-.545 0-1.029-.202-1.358-.551-.34-.356-.494-.83-.464-1.382v-1.65l-4.35-.02h-.02a1.166 1.166 0 01-1.022-1.711L5.513 7.795l-.01-5.93c0-.494.194-.944.544-1.294.35-.346.807-.54 1.3-.54h8.424a1.885 1.885 0 011.409.577l6.084 5.87zM8.326 15.375a.727.727 0 01-.73-.723v-5.25c0-.4.327-.723.73-.723.403 0 .73.326.73.723v5.25a.73.73 0 01-.73.723zm.007.376c.42 0 .76.34.76.757 0 .416-.34.756-.76.756a.756.756 0 110-1.513z" fill="#5CB615" fill-rule="nonzero"/></svg>
